svgs/thin/square-ampersand.svg

<svg xmlns="http://www.w3.org/2000/svg" viewBox="0 0 448 512"><!--! Font Awesome Pro 6.3.0 by @fontawesome - https://fontawesome.com License - https://fontawesome.com/license (Commercial License) Copyright 2023 Fonticons, Inc. --><path d="M384 32H64C28.65 32 0 60.65 0 96v320c0 35.35 28.65 64 64 64h320c35.35 0 64-28.65 64-64V96C448 60.65 419.3 32 384 32zM432 416c0 26.47-21.53 48-48 48H64c-26.47 0-48-21.53-48-48V96c0-26.47 21.53-48 48-48h320c26.47 0 48 21.53 48 48V416zM290.9 325.9l42.51-60.1c2.562-3.609 1.688-8.609-1.906-11.16c-3.625-2.562-8.594-1.719-11.16 1.906l-40.62 57.43L211.3 241.1l36.91-29.75c11.47-8.938 18.06-22.25 18.06-36.52C266.3 149 244.6 128 217.1 128H195.7C169.1 128 147.4 149 147.4 174.8c0 14.03 5.375 27.44 15.12 37.7l25.28 26.94L135.3 281.8c-14.09 10.94-22.16 27.25-22.16 44.77C113.2 358.2 139.8 384 172.4 384h38.88c24.09 0 46.63-11.48 60.22-30.72l9.902-14l39.57 42.19c3.094 3.25 8.125 3.391 11.31 .3594c3.219-3.016 3.375-8.078 .375-11.3L290.9 325.9zM174.2 201.6C167.3 194.3 163.4 184.8 163.4 174.8C163.4 157.8 177.9 144 195.7 144h22.28c17.81 0 32.28 13.84 32.28 30.84c0 9.297-4.344 18.02-12 23.97l-37.97 30.61L174.2 201.6zM258.5 344C247.9 359 230.2 368 211.3 368H172.4c-23.88 0-43.28-18.58-43.28-41.42c0-12.53 5.812-24.25 16.09-32.22l53.56-43.17l71.45 76.18L258.5 344z"/></svg>

<svg xmlns="http://www.w3.org/2000/svg" viewBox="0 0 448 512"><!-- Font Awesome Pro 6.0.0-alpha2 by @fontawesome - https://fontawesome.com License - https://fontawesome.com/license (Commercial License) --><path d="M384 32H64C28.654 32 0 60.654 0 96V416C0 451.346 28.654 480 64 480H384C419.346 480 448 451.346 448 416V96C448 60.654 419.346 32 384 32ZM432 416C432 442.467 410.467 464 384 464H64C37.533 464 16 442.467 16 416V96C16 69.533 37.533 48 64 48H384C410.467 48 432 69.533 432 96V416ZM290.869 325.941L333.375 265.844C335.937 262.234 335.062 257.234 331.469 254.687C327.844 252.125 322.875 252.969 320.312 256.594L279.693 314.023L211.312 241.109L248.219 211.359C259.687 202.422 266.281 189.109 266.281 174.844C266.281 149.016 244.625 128 218 128H195.719C169.094 128 147.438 149.016 147.438 174.844C147.438 188.875 152.813 202.281 162.562 212.547L187.844 239.484L135.312 281.812C121.219 292.75 113.156 309.062 113.156 326.578C113.156 358.234 139.75 384 172.438 384H211.313C235.406 384 257.938 372.516 271.531 353.281L281.434 339.281L321 381.469C324.094 384.719 329.125 384.859 332.312 381.828C335.531 378.813 335.688 373.75 332.688 370.531L290.869 325.941ZM174.219 201.578C167.25 194.25 163.438 184.75 163.438 174.844C163.438 157.844 177.906 144 195.719 144H218C235.812 144 250.281 157.844 250.281 174.844C250.281 184.141 245.937 192.859 238.281 198.812L200.312 229.422L174.219 201.578ZM258.469 344.031C247.875 359.047 230.219 368 211.312 368H172.438C148.562 368 129.156 349.422 129.156 326.578C129.156 314.047 134.969 302.328 145.25 294.359L198.812 251.188L270.258 327.365L258.469 344.031Z"/></svg>
